X:661
T: Jim Kelly's
Z: Piano Box Version by Martin Fleischmann
H: Created 2015-03-30 /  Last Modified 2015-05-17
R: reel
M: 4/4
L: 1/8
K: Dmaj
dB|:"D"AFF2 BdAF|DEFA BABd|"em"eBB2 egfe|"A"dfed BcdB|
"D"AFF2 BdAF|DEFA BABd|"em"egfg efdB|"A"AFEF "D"D2:|
A2|:"D"dcde fefg|afbf afdf|"em"eBB2 gBB2|"A"fedf efdB|
"D"AFF2 ABdf|a2bf afdf|"G"g2fg efdB|"A"AFEF "D"D2:||

